X:530
T:The Gallowglass
M:6/8
L:1/8
K:G
B||:"Am"cBA "Em"eBd|"Am"cAA A2 B|cBA "C"efg|"G"BGG G2 B|
"Am"cBA "Em"eBd|"Am"cea "Em"e2d|"Am"cBA "E"^GAB|"Am"cAA A2 e:|
"Am"a^ga "Em"e=fd|"Am"cAA A2B|cBA "C"e^fg|"G"BGG G2e|
"Am"a^ga "Em"e=fd|"Am"cAA A2B|"Am"cBA "E"^GAB|"Am"cAA A2e|
"Am"a^ga "Em"e=fd|"Am"cAA A2B|"Am"cBA "C"e^fg|"G"BGG G2e|
"Am"aeg "Em"fdB|"Am"ecA "E"B^GE|"Am"ABc "Em"dBe|"Am"cAA A2||

